Adwaita++/actions/16/playlist_display-sync.svg

<svg fill="none" height="16" viewBox="0 0 16 16" width="16" xmlns="http://www.w3.org/2000/svg" xmlns:xlink="http://www.w3.org/1999/xlink">
  <defs>
    <clipPath id="clip0">
      <path d="m0 0h16v16h-16z"/>
    </clipPath>
  </defs>
  <g clip-path="url(#clip0)">
    <path d="m9.29763 4.62388c.3056.11746.59261.27538.85377.46862l-1.15139 1.15285.28612.28612.0296.02959c.05466.05578.12623.09335.21085.10479l3.90602.51188c.1709.02512.3699-.07423.5189-.22348.1491-.14924.2483-.34839.223-.51945l-.514-3.90815c-.0115-.08465-.0492-.15612-.1049-.21092l-.0296-.0296-.2861-.28612-1.3934 1.39518c-.1259-.10515-.2559-.20505-.3899-.29946-.4027-.28386-.8405-.51813-1.304-.69629-.9377-.36041-1.9509-.47961-2.94666-.34666s-1.94219.5138-2.7525 1.10761c-.81031.5938-1.45855 1.38157-1.88527 2.29103-.42671.90946-.61824 1.91151-.55702 2.91424.06123 1.00273.37324 1.97404.90743 2.82484s1.27346 1.5538 2.14999 2.0446c.43327.2427.89322.4296 1.36894.5579.48669.1313.98987.2012 1.49786.2067l.02567-2.383c-.60555-.0065-1.19977-.165-1.72816-.4609-.52839-.2958-.97403-.7196-1.29605-1.23252-.32202-.51287-.51011-1.09839-.54701-1.70285-.03691-.60446.07855-1.20852.33578-1.75676s.648-1.02312 1.13647-1.38108 1.059-.58754 1.65926-.66768c.60026-.08015 1.21103-.00829 1.7763.20897z" fill="#444"/>
  </g>
</svg>

<svg xmlns="http://www.w3.org/2000/svg" fill="none" width="16" height="16" viewBox="0 0 16 16">
 <g clip-path="url(#clip0)">
  <path fill="#444" d="M9.29763 4.62388C9.60323 4.74134 9.89024 4.89926 10.1514 5.0925L9.00001 6.24535L9.28613 6.53147L9.31573 6.56106C9.37039 6.61684 9.44196 6.65441 9.52658 6.66585L13.4326 7.17773C13.6035 7.20285 13.8025 7.1035 13.9515 6.95425C14.1006 6.80501 14.1998 6.60586 14.1745 6.4348L13.6605 2.52665C13.649 2.442 13.6113 2.37053 13.5556 2.31573L13.526 2.28613L13.2399 2.00001L11.8465 3.39519C11.7206 3.29004 11.5906 3.19014 11.4566 3.09573C11.0539 2.81187 10.6161 2.5776 10.1526 2.39944C9.2149 2.03903 8.2017 1.91983 7.20594 2.05278C6.21018 2.18573 5.26375 2.56658 4.45344 3.16039C3.64313 3.75419 2.99489 4.54196 2.56817 5.45142C2.14146 6.36088 1.94993 7.36293 2.01115 8.36566C2.07238 9.36839 2.38439 10.3397 2.91858 11.1905C3.45277 12.0413 4.19204 12.7443 5.06857 13.2351C5.50184 13.4778 5.96179 13.6647 6.43751 13.793C6.9242 13.9243 7.42738 13.9942 7.93537 13.9997L7.96104 11.6167C7.35549 11.6102 6.76127 11.4517 6.23288 11.1558C5.70449 10.86 5.25885 10.4362 4.93683 9.92328C4.61481 9.41041 4.42672 8.82489 4.38982 8.22043C4.35291 7.61597 4.46837 7.01191 4.7256 6.46367C4.98283 5.91543 5.3736 5.44055 5.86207 5.08259C6.35054 4.72463 6.92107 4.49505 7.52133 4.41491C8.12159 4.33476 8.73236 4.40662 9.29763 4.62388Z"/>
 </g>
 <defs>
  <clipPath id="clip0">
   <rect fill="#fff" width="16" height="16"/>
  </clipPath>
 </defs>
</svg>
